img/service-pay__01.svg

<svg width="40" height="40" viewBox="0 0 40 40" fill="none" xmlns="http://www.w3.org/2000/svg">
<path d="M22.3438 20.7812C24.9333 20.7812 27.0312 18.6837 27.0312 16.0938C27.0312 13.5091 24.9284 11.4062 22.3438 11.4062H15.3125C14.8811 11.4062 14.5312 11.756 14.5312 12.1875V19.2188H13.75C13.3186 19.2188 12.9688 19.5685 12.9688 20C12.9688 20.4315 13.3186 20.7812 13.75 20.7812H14.5312V23.9062H13.75C13.3186 23.9062 12.9688 24.256 12.9688 24.6875C12.9688 25.119 13.3186 25.4688 13.75 25.4688H14.5312V29.375C14.5312 29.8065 14.8811 30.1562 15.3125 30.1562C15.7439 30.1562 16.0938 29.8065 16.0938 29.375V25.4688H21.5625C21.9939 25.4688 22.3438 25.119 22.3438 24.6875C22.3438 24.256 21.9939 23.9062 21.5625 23.9062H16.0938V20.7812H22.3438ZM16.0938 12.9688H22.3438C24.0669 12.9688 25.4688 14.3706 25.4688 16.0938C25.4688 17.8196 24.07 19.2188 22.3438 19.2188H16.0938V12.9688Z" fill="#F04E23"/>
<path d="M20 6.32812C20.4203 6.32812 20.7633 5.99531 20.7805 5.57891C20.7812 5.56875 20.7812 5.55781 20.7812 5.54688C20.7812 5.11562 20.4312 4.76562 20 4.76562C19.5687 4.76562 19.2188 5.11562 19.2188 5.54688C19.2188 5.55781 19.2187 5.56875 19.2195 5.57891C19.2367 5.99531 19.5797 6.32812 20 6.32812Z" fill="#F04E23"/>
<path d="M20 40C30.7697 40 40 30.7738 40 20C40 9.2468 30.7902 0 20 0C9.23031 0 0 9.22625 0 20C0 30.7687 9.22625 40 20 40ZM20 1.5625C29.8219 1.5625 38.4375 10.1781 38.4375 20C38.4375 29.8219 29.8219 38.4375 20 38.4375C10.1781 38.4375 1.5625 29.8219 1.5625 20C1.5625 10.1781 10.1781 1.5625 20 1.5625Z" fill="#F04E23"/>
<path d="M20 35.311C28.1406 35.311 35.3125 28.1939 35.3125 19.9985C35.3125 13.0426 30.0904 6.68832 23.2921 5.07411C22.8723 4.97434 22.4512 5.23387 22.3515 5.65371C22.2519 6.07356 22.5113 6.49465 22.9311 6.59434C29.0989 8.05879 33.75 13.8214 33.75 19.9985C33.75 27.3232 27.3248 33.7485 20 33.7485C12.6752 33.7485 6.25 27.3232 6.25 19.9985C6.25 13.8214 10.9011 8.05879 17.0689 6.59434C17.4887 6.49465 17.7481 6.07356 17.6485 5.65371C17.5488 5.23379 17.1276 4.97426 16.7079 5.07411C9.91492 6.68707 4.6875 13.037 4.6875 19.9985C4.6875 28.1391 11.8046 35.311 20 35.311Z" fill="#F04E23"/>
</svg>

<svg width="40" height="40" fill="none" xmlns="http://www.w3.org/2000/svg"><path d="M22.344 20.781a4.686 4.686 0 004.687-4.687 4.693 4.693 0 00-4.687-4.688h-7.032a.781.781 0 00-.78.781v7.032h-.782a.781.781 0 100 1.562h.781v3.125h-.781a.781.781 0 000 1.563h.781v3.906a.781.781 0 001.563 0v-3.906h5.468a.781.781 0 000-1.563h-5.468v-3.125h6.25zm-6.25-7.812h6.25a3.125 3.125 0 110 6.25h-6.25v-6.25zM20 6.328c.42 0 .763-.333.78-.75l.001-.031a.782.782 0 00-1.562 0v.032c.018.416.36.75.781.75z" fill="#F04E23"/><path d="M20 40c10.77 0 20-9.226 20-20C40 9.247 30.79 0 20 0 9.23 0 0 9.226 0 20c0 10.769 9.226 20 20 20zm0-38.438c9.822 0 18.438 8.616 18.438 18.438S29.822 38.438 20 38.438 1.562 29.822 1.562 20 10.178 1.562 20 1.562z" fill="#F04E23"/><path d="M20 35.311c8.14 0 15.313-7.117 15.313-15.313 0-6.955-5.223-13.31-12.02-14.924a.781.781 0 10-.362 1.52C29.1 8.06 33.75 13.821 33.75 20c0 7.324-6.425 13.75-13.75 13.75S6.25 27.322 6.25 19.998c0-6.178 4.651-11.94 10.819-13.405a.781.781 0 00-.361-1.52c-6.793 1.613-12.02 7.963-12.02 14.924 0 8.141 7.117 15.313 15.312 15.313z" fill="#F04E23"/></svg>
